X: 3
T: Teahan's Favourite
R: slide
M: 12/8
L: 1/8
K: Edor
|: efe B2 A GFE B3 | FED A2 D d2 D A2 B |
efe B2 A GFE B3 | FED F2 A E3 E3 :|
|: B2 e ede f2 a a3 | baf a2 f e2 d B3 |
[1 B2 e ede f2 a a^ga | baf a2 f e3 e3 :|
[2 fgf f2 e ded B3 | FED F2 A E3 E3 |]


Tune 2613	Setting 2613

